icons/svgs/gear-solid.svg

<svg width="24" height="24" viewBox="0 0 24 24" fill="none" xmlns="http://www.w3.org/2000/svg">
<path d="M21.3361 8.52344C21.4923 8.875 21.3752 9.22656 21.1017 9.5L19.422 11.0234C19.4611 11.3359 19.4611 11.6875 19.4611 12C19.4611 12.3516 19.4611 12.7031 19.422 13.0156L21.1017 14.5391C21.3752 14.7734 21.4923 15.1641 21.3361 15.5156C21.1798 15.9844 20.9845 16.4141 20.7502 16.8438L20.5548 17.1562C20.2814 17.5859 20.008 18.0156 19.6955 18.3672C19.4611 18.6797 19.0705 18.7578 18.7189 18.6406L16.5705 17.9766C16.0236 18.3672 15.4377 18.6797 14.8517 18.9531L14.3439 21.1797C14.2658 21.5312 13.9923 21.8047 13.6408 21.8828C13.0939 21.9609 12.547 22 11.9611 22C11.4142 22 10.8673 21.9609 10.3205 21.8828C9.96891 21.8047 9.69547 21.5312 9.61735 21.1797L9.10954 18.9531C8.48454 18.6797 7.93766 18.3672 7.39079 17.9766L5.24235 18.6406C4.89079 18.7578 4.50016 18.6797 4.26579 18.4062C3.95329 18.0156 3.67985 17.5859 3.40641 17.1562L3.2111 16.8438C2.97672 16.4141 2.78141 15.9844 2.62516 15.5156C2.46891 15.1641 2.5861 14.8125 2.85954 14.5391L4.53922 13.0156C4.50016 12.7031 4.50016 12.3516 4.50016 12C4.50016 11.6875 4.50016 11.3359 4.53922 11.0234L2.85954 9.5C2.5861 9.22656 2.46891 8.875 2.62516 8.52344C2.78141 8.05469 2.97672 7.625 3.2111 7.19531L3.40641 6.88281C3.67985 6.45312 3.95329 6.02344 4.26579 5.63281C4.50016 5.35938 4.89079 5.28125 5.24235 5.39844L7.39079 6.0625C7.93766 5.67188 8.5236 5.32031 9.10954 5.08594L9.61735 2.85938C9.69547 2.50781 9.96891 2.23438 10.3205 2.15625C10.8673 2.07812 11.4142 2 12.0002 2C12.547 2 13.0939 2.07812 13.6408 2.15625C13.9923 2.19531 14.2658 2.50781 14.3439 2.85938L14.8517 5.08594C15.4767 5.32031 16.0236 5.67188 16.5705 6.0625L18.7189 5.39844C19.0705 5.28125 19.4611 5.35938 19.6955 5.63281C20.008 6.02344 20.2814 6.45312 20.5548 6.88281L20.7502 7.19531C20.9845 7.625 21.1798 8.05469 21.3752 8.52344H21.3361ZM12.0002 15.125C13.0939 15.125 14.1095 14.5391 14.6955 13.5625C15.2423 12.625 15.2423 11.4141 14.6955 10.4375C14.1095 9.5 13.0939 8.875 12.0002 8.875C10.8673 8.875 9.85172 9.5 9.26579 10.4375C8.71891 11.4141 8.71891 12.625 9.26579 13.5625C9.85172 14.5391 10.8673 15.125 12.0002 15.125Z" fill="black"/>
</svg>

<svg xmlns="http://www.w3.org/2000/svg" width="24" height="24" fill="currentColor" class="icon-gear-solid" viewBox="0 0 24 24">
  <mask id="a" width="20" height="20" x="2" y="2" maskUnits="userSpaceOnUse" style="mask-type:alpha">
    <path d="M21.336 8.523c.156.352.04.704-.234.977l-1.68 1.523c.04.313.04.665.04.977 0 .352 0 .703-.04 1.016l1.68 1.523a.84.84 0 0 1 .234.977 8 8 0 0 1-.586 1.328l-.195.312c-.274.43-.547.86-.86 1.211-.234.313-.625.39-.976.274l-2.149-.664c-.546.39-1.132.703-1.718.976l-.508 2.227a.93.93 0 0 1-.703.703 11.7 11.7 0 0 1-3.32 0 .93.93 0 0 1-.704-.703l-.507-2.227a9.3 9.3 0 0 1-1.72-.976l-2.148.664c-.351.117-.742.039-.976-.235-.313-.39-.586-.82-.86-1.25l-.195-.312c-.234-.43-.43-.86-.586-1.328-.156-.352-.039-.703.235-.977l1.68-1.523c-.04-.313-.04-.664-.04-1.016 0-.312 0-.664.04-.977L2.86 9.5c-.274-.273-.391-.625-.235-.977.156-.468.352-.898.586-1.328l.195-.312c.274-.43.547-.86.86-1.25.234-.274.625-.352.976-.235l2.149.665c.547-.391 1.133-.743 1.719-.977l.507-2.227a.93.93 0 0 1 .703-.703C10.868 2.078 11.414 2 12 2c.547 0 1.094.078 1.64.156.352.04.626.352.704.703l.508 2.227c.625.234 1.172.586 1.718.976l2.149-.664c.351-.117.742-.039.976.235.313.39.586.82.86 1.25l.195.312c.235.43.43.86.625 1.328zM12 15.125c1.094 0 2.11-.586 2.695-1.562.547-.938.547-2.149 0-3.126-.585-.937-1.6-1.561-2.695-1.561-1.133 0-2.148.625-2.734 1.563-.547.976-.547 2.187 0 3.124A3.16 3.16 0 0 0 12 15.126"/>
  </mask>
  <g mask="url(#a)">
    <path d="M0 0h24v24H0z"/>
  </g>
</svg>
